X:1
T:Amour me poingt
T:Amour me poingt
T:Jacotin
T:Source : Il primo libro di madrigali a 3 voci---Venetia---A.Gardano---1559. Editor : André Vierendeels (01/11/14).
T:Notes : Original clefs : G2, C1, C4 Original note values have been halved Editorial accidentals above the staff 
C:Jacotin
%%score [ 1 2 3 ]
L:1/8
Q:1/4=90
M:2/2
K:F
V:1 treble nm="Canto 1" snm="C 1"
V:2 treble nm="Canto 2" snm="C 2"
V:3 treble-8 nm="Tenor" snm="T"
V:1
 d4 f4 | f3 e/d/ e2 f2 | e2 c2 c2 c2 | dc de f2 f2 | e2 d2 c2 c2 | c2 c2 dc de | f2 f2 e2 d2- | %7
w: A- mour|me _ _ _ _|poingt et si ne|me _ _ _ _ veult|plain- * dre, et|si ne me _ _ _|_ veult plain- *|
"^#" d2 c2 d2 d2 | d2 d2 fe dc | B4 A4 | z2 A2 c2 c2 | d2 f3 e dc | d2 c3 B cd | e2 f4 e2 | %14
w: * * dre, ma|pei- ne dou- * * *|* ble|et sans es-|poir de- * * *|* meu- * * *||
 f2 c2 c2 B2 | c2 d2 d4- | d2 d2 f2 f2 | e2 d4 c2- | c2 B2 c4 |: z2 A2 A4 | A4 c4 | z2 c2 c2 c2 | %22
w: re, par quoi vault|mieulx quen me|_ tai- sant ie|meu- * *|* * re,|doul- c'est|la mort|qui peut do-|
 dc de f2 f2 | e2 d2 c2 c2 | c2 c2 dc de | f2 f2 e2 d2- |1"^#" d2 c2 d4 :|2"^#" d2 c2 d4- || d8 |] %29
w: leur _ _ _ _ es-|tain- * dre, qui|peut do- leur _ _ _|_ es- tai- *|* * dre,|(tain)- * dre.|_|
V:2
 G4 FE FG | A2 B2 G2 A2 | G2 z G A2 A2 | B3 A/G/ F2 d2 | c2 B2 c2 BA | G2 A2 B4 | A2 F2 GF ED | %7
w: A- mour _ _ _|_ me _ _|poingt et si ne|me _ _ veult, et|si ne me _ _|_ veult plain-||
 E4 D2 F2 | FE FG AG FE | D2 G2 E2 CD | E2 F2 E2 A2 | A3 G F2 B2 | B2 G2 A3 G/A/ | BA GF G2 G2 | %14
w: * dre, ma|pei- * * * * * * *|ne, ma pei- * *|ne dou- ble et|sans _ _ es-|poir de- meu- * *|* * * * re, par|
 F2 E2 D4 | z2 B2 B4- | B2 B2 A2 F2 | G4 FE DC | D4 C2 E2 |: F4 F4 | FE FG A4 | G2 z G A2 A2 | %22
w: quoi vault mieulx|quen me|_ tai- sant ie|meu- * * * *|* re, doul-|c'est la|mort, _ _ _ _|_ qui peult do-|
 B3 A/G/ F2 d2 | c2 B2 c3 B/A/ | G2 A2 B4 | A2 F2 GF ED |1 E4 D2 F2 :|2 E4 D4- || D8 |] %29
w: leur, _ _ _ qui|peult do- leur _ _|_ es- tain-||* dre, doul-|(tain)- dre.|_|
V:3
 G4 d4- | d2 cB c2 F2 | c4 F4 | z2 B2 B2 B2 | c2 G2 AG AB | c3 B/A/ GA Bc | d4 c2 d2 | A4 z2 B2 | %8
w: A- mour|_ _ _ _ _|me poingt|et si ne|me veult plain- * * *|||dre, ma|
 B2 B2 F4 | G2 G2 AG AB | c2 d2 A2 f2 | f3 e dc BA | B2 c2 F2 f2 | e2 d2 c4 | F2 A2 B2 B2 | %15
w: pei- ne dou-|ble et sans _ _ _|_ es- poir de-|meu- * * * * *|* * re, par|quoi vault mieulx|quen me tai- sant|
 A2 G3 F GA | BA Bc d4 | c2 G2 A4 | G4 z2 c2 |: d4 d4- | d2 cB A2 F2 | c4 F4 | z2 B2 B2 B2 | %23
w: ie meu- * * *|||re, doul-|c'est la|_ _ _ _ _|* mort|qui peult do-|
 c2 G2 AG AB | c3 B/A/ GA Bc | d4 c2 d2 |1 A4 D2 d2 :|2 A4 D4- || D8 |] %29
w: leur es- tain- * * *|||* dre, doul-|(tain)- dre.|_|

